src/actions/22/view-certificate-server-configure.svg

<svg xmlns="http://www.w3.org/2000/svg" viewBox="0 0 22 22">
    <path d="M3 5v8h1V6h14v5h1V5H3zm4.5 2C6.669 7 6 7.669 6 8.5V10H5v3h5v-3H9V8.5C9 7.669 8.331 7 7.5 7zm0 1c.277 0 .5.223.5.5V10H7V8.5c0-.277.223-.5.5-.5zM11 8v1h6V8h-6zm0 2v1h5v-1h-5zm0 2v1h4v-1h-4zm-8 2v5h5v-5H3zm11 0v1h5v-1h-5zm-9 1h2v1H5v-1zm4 1v1h4v-1H9zm5 0v1h5v-1h-5zM4 17h3v1H4v-1zm10 1v1h5v-1h-5z" style="fill:currentColor;fill-opacity:1;stroke:none;color:#050505;opacity:.7"/>
</svg>

<svg xmlns="http://www.w3.org/2000/svg" viewBox="0 0 22 22">
  <defs id="defs3051">
    <style type="text/css" id="current-color-scheme">
      .ColorScheme-Text {
        color:#363636;
      }
      </style>
  </defs>
 <path 
    style="fill:currentColor;fill-opacity:1;stroke:none" 
    d="M 3 5 L 3 13 L 4 13 L 4 6 L 18 6 L 18 11 L 19 11 L 19 5 L 3 5 z M 7.5 7 C 6.669 7 6 7.669 6 8.5 L 6 10 L 5 10 L 5 13 L 10 13 L 10 10 L 9 10 L 9 8.5 C 9 7.669 8.331 7 7.5 7 z M 7.5 8 C 7.777 8 8 8.223 8 8.5 L 8 10 L 7 10 L 7 8.5 C 7 8.223 7.223 8 7.5 8 z M 11 8 L 11 9 L 17 9 L 17 8 L 11 8 z M 11 10 L 11 11 L 16 11 L 16 10 L 11 10 z M 11 12 L 11 13 L 15 13 L 15 12 L 11 12 z M 3 14 L 3 19 L 8 19 L 8 14 L 3 14 z M 14 14 L 14 15 L 19 15 L 19 14 L 14 14 z M 5 15 L 7 15 L 7 16 L 5 16 L 5 15 z M 9 16 L 9 17 L 13 17 L 13 16 L 9 16 z M 14 16 L 14 17 L 19 17 L 19 16 L 14 16 z M 4 17 L 7 17 L 7 18 L 4 18 L 4 17 z M 14 18 L 14 19 L 19 19 L 19 18 L 14 18 z "
	class="ColorScheme-Text"
    />  
</svg>
